images/svg/logo.svg

<svg width="147" height="44" viewBox="0 0 147 44" fill="none" xmlns="http://www.w3.org/2000/svg">
<g clip-path="url(#clip0_221:2694)">
<path d="M141.058 8.96119H140.035V8.26605H142.857V8.96119H141.838V11.7316H141.058V8.96119ZM143.582 8.26605H144.402L145.301 9.72684L146.2 8.26605H147V11.7316H146.269V9.38935L145.326 10.9005H145.246L144.302 9.38935V11.7316H143.572L143.582 8.26605Z" fill="#115DA3"/>
<path d="M0 16.794V16.7034C0 7.52055 7.14832 0 16.9692 0C26.79 0 33.8589 7.42988 33.8589 16.6228V16.7185C33.8589 25.8963 26.7155 33.4168 16.8897 33.4168C7.06387 33.4168 0 25.9718 0 16.794ZM26.5218 16.794V16.7034C26.5218 11.1625 22.5179 6.55341 16.8798 6.55341C11.2416 6.55341 7.32218 11.0869 7.32218 16.6278V16.7235C7.32218 22.2645 11.326 26.8685 16.9692 26.8685C22.6123 26.8685 26.5218 22.3299 26.5218 16.794Z" fill="#115DA3"/>
<path d="M52.4228 8.84031L50.7537 15.3534C49.7698 14.3444 48.4416 13.7567 47.0429 13.7113C44.5592 13.7113 42.9149 14.8245 42.9149 19.2119V32.9182H36.5117V7.58101H42.9149V9.27351C43.5468 8.56473 44.3199 8.00016 45.1831 7.6172C46.0464 7.23423 46.98 7.04162 47.9222 7.0521C48.7527 7.02528 49.58 7.16997 50.3537 7.47738C51.1273 7.78478 51.8313 8.24848 52.4228 8.84031Z" fill="#115DA3"/>
<path d="M89.471 32.9181H83.0728V19.2119C83.0728 14.6784 81.8209 13.3284 79.1732 13.3284C76.5255 13.3284 75.234 14.6784 75.234 19.0708V32.9181H68.8308V19.2119C68.8308 14.6784 67.5789 13.3284 64.9362 13.3284C62.2935 13.3284 60.992 14.6784 60.992 19.0708V32.9181H54.5938V7.58098H60.992V9.27348C61.6728 8.53777 62.5014 7.95876 63.4218 7.57553C64.3421 7.19231 65.3329 7.01381 66.3271 7.05207C69.4319 7.05207 71.245 7.96884 73.0532 10.286C74.7223 8.50279 76.764 7.05207 80.7976 7.05207C87.012 7.05207 89.471 11.4949 89.471 18.6376V32.9181Z" fill="#115DA3"/>
<path d="M91.9348 20.0783V19.9876C91.9117 18.283 92.2274 16.591 92.863 15.0127C93.4987 13.4344 94.4412 12.002 95.6344 10.8009C96.8277 9.5999 98.2472 8.65479 99.8084 8.02197C101.37 7.38915 103.04 7.08158 104.721 7.11758C109.316 7.11758 112.173 8.68415 114.458 11.2682L110.225 15.8823C108.68 14.22 107.131 13.1572 104.677 13.1572C101.199 13.1572 98.7602 16.25 98.7602 19.8919V19.9876C98.7602 23.7706 101.169 26.8131 104.95 26.8131C107.27 26.8131 108.859 25.8056 110.543 24.1836L114.592 28.3343C112.227 30.9637 109.495 32.8678 104.627 32.8678C102.958 32.9003 101.3 32.5924 99.7506 31.9622C98.2014 31.332 96.793 30.3924 95.609 29.1994C94.425 28.0063 93.4897 26.5841 92.8585 25.0172C92.2273 23.4503 91.9132 21.7707 91.9348 20.0783Z" fill="#115DA3"/>
<path d="M114.651 20.1136V20.0229C114.651 12.9204 120.295 7.15283 127.89 7.15283C135.485 7.15283 141.039 12.8348 141.039 19.9322V20.0229C141.039 27.1254 135.396 32.893 127.801 32.893C120.205 32.893 114.651 27.2211 114.651 20.1136ZM134.214 20.1136V20.0229C134.214 16.381 131.621 13.1975 127.801 13.1975C123.826 13.1975 121.477 16.2853 121.477 19.9322V20.0229C121.477 23.6698 124.07 26.8483 127.89 26.8483C131.834 26.8483 134.214 23.7605 134.214 20.1136Z" fill="#115DA3"/>
<path d="M5.78686 41.6073L3.51172 38.0813H4.7089L6.30349 40.6503L7.92788 38.0813H9.08532L6.80521 41.5822V43.8993H5.8117L5.78686 41.6073Z" fill="#115DA3"/>
<path d="M9.13574 41.0079C9.13574 40.201 9.45186 39.4271 10.0145 38.8566C10.5772 38.286 11.3404 37.9655 12.1361 37.9655C12.9319 37.9655 13.6951 38.286 14.2578 38.8566C14.8204 39.4271 15.1366 40.201 15.1366 41.0079C15.1366 41.8148 14.8204 42.5887 14.2578 43.1593C13.6951 43.7299 12.9319 44.0504 12.1361 44.0504C11.3404 44.0504 10.5772 43.7299 10.0145 43.1593C9.45186 42.5887 9.13574 41.8148 9.13574 41.0079ZM14.1033 41.0079C14.1126 40.7375 14.0682 40.4678 13.9725 40.2152C13.8768 39.9625 13.7319 39.732 13.5465 39.5374C13.361 39.3427 13.1388 39.188 12.8931 39.0824C12.6474 38.9767 12.3832 38.9224 12.1163 38.9225C11.855 38.923 11.5965 38.977 11.3564 39.0813C11.1162 39.1856 10.8994 39.3382 10.7189 39.5297C10.5384 39.7212 10.3979 39.9478 10.306 40.1957C10.214 40.4437 10.1725 40.708 10.1839 40.9727C10.1704 41.2425 10.2113 41.5123 10.3042 41.7655C10.3971 42.0187 10.5401 42.2501 10.7242 42.4453C10.9084 42.6405 11.1299 42.7956 11.3753 42.901C11.6206 43.0063 11.8846 43.0598 12.151 43.0581C12.4142 43.0611 12.6752 43.0096 12.918 42.9067C13.1608 42.8039 13.3803 42.6518 13.5631 42.4598C13.7459 42.2679 13.8881 42.0401 13.981 41.7904C14.0739 41.5408 14.1155 41.2745 14.1033 41.0079Z" fill="#115DA3"/>
<path d="M16.1895 41.431V38.0813H17.183V41.3907C17.183 42.4687 17.7344 43.0429 18.6335 43.0429C19.5326 43.0429 20.079 42.504 20.079 41.431V38.0813H21.0726V41.3807C21.0726 43.1185 20.1089 43.9899 18.5888 43.9899C17.0687 43.9899 16.1895 43.1185 16.1895 41.431Z" fill="#115DA3"/>
<path d="M22.4043 38.0813H24.9626C25.5684 38.0472 26.163 38.2572 26.6168 38.6656C26.7771 38.8311 26.9035 39.0271 26.9888 39.2424C27.0741 39.4577 27.1164 39.6879 27.1135 39.9199C27.126 40.3288 26.9966 40.7292 26.7479 41.0514C26.4992 41.3735 26.1469 41.597 25.7524 41.6829L27.2973 43.8842H26.1051L24.6943 41.8693H23.4127V43.8842H22.4192L22.4043 38.0813ZM24.8881 40.9676C25.6084 40.9676 26.0654 40.5848 26.0654 39.9954C26.0654 39.3708 25.6233 39.0283 24.8781 39.0283H23.4127V40.9827L24.8881 40.9676Z" fill="#115DA3"/>
<path d="M30.625 38.0813H32.8852C34.2314 38.0813 35.066 38.857 35.066 40.0307C35.066 41.3353 34.0327 42.0154 32.771 42.0154H31.6334V43.8842H30.6399L30.625 38.0813ZM32.8058 41.1036C33.5658 41.1036 34.0427 40.6704 34.0427 40.066C34.0427 39.3859 33.5459 39.0283 32.8058 39.0283H31.6334V41.1238L32.8058 41.1036Z" fill="#115DA3"/>
<path d="M36.0195 38.0813H38.5729C39.1787 38.0472 39.7732 38.2572 40.2271 38.6656C40.3883 38.8304 40.5153 39.0263 40.6006 39.2418C40.6859 39.4572 40.7278 39.6878 40.7238 39.9199C40.7363 40.3288 40.6069 40.7292 40.3582 41.0514C40.1095 41.3735 39.7572 41.597 39.3627 41.6829L40.9126 43.8842H39.6955L38.2897 41.8693H37.0279V43.8842H36.0344L36.0195 38.0813ZM38.5033 40.9676C39.2286 40.9676 39.6856 40.5848 39.6856 39.9954C39.6856 39.3708 39.2435 39.0283 38.4983 39.0283H37.0279V40.9827L38.5033 40.9676Z" fill="#115DA3"/>
<path d="M43.9085 38.0208H44.8424L47.366 43.8791H46.288L45.7068 42.4737H42.9945L42.4183 43.8992H41.3701L43.9085 38.0208ZM45.3541 41.5469L44.3606 39.2197L43.3671 41.5469H45.3541Z" fill="#115DA3"/>
<path d="M47.6387 41.0079C47.6284 40.6082 47.6985 40.2105 47.8447 39.8391C47.9908 39.4677 48.21 39.1304 48.4888 38.8477C48.7677 38.5649 49.1004 38.3427 49.4666 38.1945C49.8328 38.0463 50.225 37.9752 50.6192 37.9856C51.0352 37.9693 51.4498 38.0416 51.8366 38.1978C52.2233 38.354 52.5735 38.5905 52.8645 38.8923L52.2138 39.6479C52.0073 39.4249 51.759 39.246 51.4835 39.1214C51.208 38.9969 50.9108 38.9292 50.6093 38.9225C50.3512 38.9276 50.0967 38.9851 49.8609 39.0916C49.625 39.1981 49.4126 39.3514 49.2362 39.5425C49.0598 39.7336 48.9229 39.9586 48.8337 40.2042C48.7444 40.4499 48.7046 40.7111 48.7166 40.9726C48.6998 41.2353 48.7354 41.4988 48.8213 41.7472C48.9071 41.9957 49.0414 42.224 49.2162 42.4187C49.391 42.6133 49.6027 42.7703 49.8386 42.8801C50.0746 42.99 50.3299 43.0505 50.5894 43.058C50.9007 43.0563 51.2082 42.9886 51.4922 42.8594C51.7762 42.7301 52.0304 42.5421 52.2386 42.3075L52.8844 42.9724C52.5973 43.3094 52.2395 43.577 51.8373 43.7556C51.4351 43.9343 50.9985 44.0195 50.5596 44.005C50.1717 44.0099 49.7869 43.9354 49.4281 43.7861C49.0692 43.6367 48.7438 43.4156 48.4711 43.1358C48.1985 42.856 47.9842 42.5234 47.8412 42.1578C47.6982 41.7922 47.6293 41.4011 47.6387 41.0079Z" fill="#115DA3"/>
<path d="M55.2693 39.0283H53.4512V38.0813H58.1058V39.0283H56.2876V43.8942H55.2941L55.2693 39.0283Z" fill="#115DA3"/>
<path d="M59.1484 38.0813H60.142V43.8993H59.1484V38.0813Z" fill="#115DA3"/>
<path d="M61.3546 41.0079C61.3438 40.6101 61.4127 40.2143 61.557 39.8443C61.7014 39.4743 61.9183 39.1379 62.1947 38.8554C62.471 38.5728 62.8009 38.3501 63.1646 38.2006C63.5282 38.0511 63.918 37.9779 64.3103 37.9856C64.7263 37.9693 65.141 38.0416 65.5277 38.1978C65.9144 38.354 66.2646 38.5905 66.5556 38.8923L65.9099 39.6479C65.7033 39.4249 65.4551 39.246 65.1796 39.1214C64.9041 38.9969 64.6069 38.9292 64.3053 38.9225C64.047 38.9269 63.7922 38.9839 63.5561 39.0902C63.3199 39.1964 63.1073 39.3497 62.9307 39.541C62.7541 39.7322 62.6173 39.9575 62.5283 40.2035C62.4393 40.4494 62.4 40.711 62.4127 40.9726C62.3959 41.237 62.4321 41.5021 62.5191 41.7518C62.6062 42.0016 62.7423 42.2309 62.9192 42.4258C63.0961 42.6207 63.3101 42.7773 63.5484 42.8859C63.7866 42.9946 64.0441 43.0531 64.3053 43.058C64.6158 43.0556 64.9223 42.9876 65.2054 42.8583C65.4885 42.7291 65.742 42.5415 65.9496 42.3075L66.5954 42.9724C66.3083 43.3078 65.9512 43.574 65.5499 43.7518C65.1486 43.9295 64.7132 44.0143 64.2755 44C63.8881 44.0048 63.5037 43.9305 63.1452 43.7815C62.7867 43.6324 62.4615 43.4117 62.1889 43.1325C61.9163 42.8533 61.702 42.5213 61.5586 42.1563C61.4153 41.7912 61.3459 41.4007 61.3546 41.0079Z" fill="#115DA3"/>
<path d="M67.5732 38.0813H71.8255V38.9981H68.5817V40.5092H71.4579V41.426H68.5817V42.9875H71.8652V43.8993H67.5732V38.0813Z" fill="#115DA3"/>
<path d="M72.8047 42.7558H73.8926V43.8992H72.8047V42.7558Z" fill="#115DA3"/>
<path d="M77.2305 41.0079C77.2305 40.2017 77.5463 39.4284 78.1085 38.8583C78.6708 38.2882 79.4333 37.968 80.2284 37.968C81.0235 37.968 81.786 38.2882 82.3482 38.8583C82.9105 39.4284 83.2263 40.2017 83.2263 41.0079C83.2263 41.8142 82.9105 42.5874 82.3482 43.1575C81.786 43.7276 81.0235 44.0479 80.2284 44.0479C79.4333 44.0479 78.6708 43.7276 78.1085 43.1575C77.5463 42.5874 77.2305 41.8142 77.2305 41.0079ZM82.1682 41.0079C82.1755 40.742 82.1308 40.4774 82.0367 40.2291C81.9425 39.9808 81.8009 39.7539 81.6198 39.5615C81.4388 39.369 81.222 39.2148 80.9819 39.1077C80.7418 39.0006 80.4832 38.9428 80.2209 38.9376C79.9597 38.938 79.7012 38.9921 79.4611 39.0964C79.2209 39.2007 79.0041 39.3533 78.8235 39.5448C78.643 39.7363 78.5026 39.9629 78.4106 40.2108C78.3187 40.4588 78.2772 40.7231 78.2886 40.9878C78.2772 41.2547 78.3191 41.5211 78.4117 41.7712C78.5043 42.0213 78.6458 42.2499 78.8276 42.4432C79.0095 42.6365 79.2279 42.7906 79.4699 42.8963C79.7119 43.0019 79.9724 43.057 80.2358 43.0581C80.4965 43.057 80.7542 43.0025 80.9935 42.8978C81.2328 42.7931 81.4488 42.6404 81.6284 42.4488C81.808 42.2573 81.9475 42.0309 82.0386 41.7833C82.1296 41.5357 82.1704 41.2719 82.1583 41.0079H82.1682Z" fill="#115DA3"/>
<path d="M84.2793 41.431V38.0813H85.2728V41.3907C85.2728 42.4687 85.8192 43.0429 86.7233 43.0429C87.6274 43.0429 88.1639 42.504 88.1639 41.431V38.0813H89.1574V41.3807C89.1574 43.1185 88.1639 43.9899 86.6737 43.9899C85.1834 43.9899 84.2793 43.1185 84.2793 41.431Z" fill="#115DA3"/>
<path d="M90.4893 38.0813H93.0475C93.6534 38.0472 94.2479 38.2572 94.7017 38.6656C94.8621 38.8311 94.9885 39.0271 95.0738 39.2424C95.159 39.4577 95.2014 39.6879 95.1985 39.9199C95.211 40.3288 95.0816 40.7292 94.8329 41.0514C94.5842 41.3735 94.2319 41.597 93.8374 41.6829L95.3873 43.8842H94.1901L92.7793 41.8693H91.4977V43.8842H90.5042L90.4893 38.0813ZM92.973 40.9676C93.6933 40.9676 94.1553 40.5848 94.1553 39.9954C94.1553 39.3708 93.7132 39.0283 92.9681 39.0283H91.4778V40.9827L92.973 40.9676Z" fill="#115DA3"/>
<path d="M98.71 38.0813H100.975C102.316 38.0813 103.151 38.857 103.151 40.0307C103.151 41.3353 102.123 42.0154 100.861 42.0154H99.7184V43.8842H98.7249L98.71 38.0813ZM100.891 41.1036C101.656 41.1036 102.128 40.6704 102.128 40.066C102.128 39.3859 101.631 39.0283 100.891 39.0283H99.7184V41.1238L100.891 41.1036Z" fill="#115DA3"/>
<path d="M104.104 38.0813H106.663C107.269 38.0472 107.863 38.2572 108.317 38.6656C108.477 38.8311 108.604 39.0271 108.689 39.2424C108.774 39.4577 108.817 39.6879 108.814 39.9199C108.826 40.3288 108.697 40.7292 108.448 41.0514C108.199 41.3735 107.847 41.597 107.453 41.6829L108.983 43.8993H107.79L106.38 41.8844H105.118V43.8993H104.124L104.104 38.0813ZM106.588 40.9676C107.309 40.9676 107.766 40.5848 107.766 39.9954C107.766 39.3708 107.323 39.0283 106.578 39.0283H105.113V40.9827L106.588 40.9676Z" fill="#115DA3"/>
<path d="M110.007 38.0813H111V43.8993H110.007V38.0813Z" fill="#115DA3"/>
<path d="M112.212 41.0079C112.212 40.2017 112.528 39.4284 113.09 38.8583C113.652 38.2882 114.415 37.968 115.21 37.968C116.005 37.968 116.767 38.2882 117.33 38.8583C117.892 39.4284 118.208 40.2017 118.208 41.0079C118.208 41.8142 117.892 42.5874 117.33 43.1575C116.767 43.7276 116.005 44.0479 115.21 44.0479C114.415 44.0479 113.652 43.7276 113.09 43.1575C112.528 42.5874 112.212 41.8142 112.212 41.0079ZM117.15 41.0079C117.157 40.742 117.112 40.4774 117.018 40.2291C116.924 39.9808 116.782 39.7539 116.601 39.5615C116.42 39.369 116.203 39.2148 115.963 39.1077C115.723 39.0006 115.465 38.9428 115.202 38.9376C114.941 38.938 114.683 38.9921 114.442 39.0964C114.202 39.2007 113.986 39.3533 113.805 39.5448C113.624 39.7363 113.484 39.9629 113.392 40.2108C113.3 40.4588 113.259 40.7231 113.27 40.9878C113.259 41.2547 113.301 41.5211 113.393 41.7712C113.486 42.0213 113.627 42.2499 113.809 42.4432C113.991 42.6365 114.209 42.7906 114.451 42.8963C114.693 43.0019 114.954 43.057 115.217 43.0581C115.479 43.0583 115.738 43.0048 115.978 42.9007C116.219 42.7966 116.436 42.6441 116.616 42.4525C116.797 42.2608 116.937 42.0339 117.029 41.7856C117.121 41.5373 117.162 41.2728 117.15 41.0079Z" fill="#115DA3"/>
<path d="M119.351 38.0813H121.899C122.505 38.0472 123.099 38.2572 123.553 38.6656C123.714 38.8309 123.84 39.0269 123.926 39.2422C124.011 39.4575 124.053 39.6879 124.05 39.9199C124.064 40.3283 123.935 40.7287 123.687 41.051C123.439 41.3732 123.088 41.5969 122.694 41.6829L124.239 43.8842H123.046L121.636 41.8693H120.359V43.8842H119.365L119.351 38.0813ZM121.834 40.9676C122.555 40.9676 123.012 40.5848 123.012 39.9954C123.012 39.3708 122.57 39.0283 121.824 39.0283H120.359V40.9827L121.834 40.9676Z" fill="#115DA3"/>
<path d="M125.252 38.0813H126.245V43.8993H125.252V38.0813Z" fill="#115DA3"/>
<path d="M129.122 39.0283H127.299V38.0813H131.953V39.0283H130.135V43.8942H129.142L129.122 39.0283Z" fill="#115DA3"/>
<path d="M134.626 41.6073L132.351 38.0813H133.548L135.142 40.6503L136.767 38.0813H137.919L135.644 41.5822V43.8993H134.626V41.6073Z" fill="#115DA3"/>
<path d="M137.482 42.7558H138.57V43.8992H137.482V42.7558Z" fill="#115DA3"/>
</g>
<defs>
<clipPath id="clip0_221:2694">
<rect width="147" height="44" fill="white"/>
</clipPath>
</defs>
</svg>

<svg width="147" height="44" fill="none" xmlns="http://www.w3.org/2000/svg"><g clip-path="url(#clip0_221:2694)" fill="#115DA3"><path d="M141.058 8.961h-1.023v-.695h2.822v.695h-1.019v2.77h-.78v-2.77zm2.524-.695h.82l.899 1.46.899-1.46h.8v3.466h-.731V9.389l-.943 1.511h-.08l-.944-1.51v2.342h-.73l.01-3.466zM0 16.794v-.09C0 7.52 7.148 0 16.97 0c9.82 0 16.889 7.43 16.889 16.623v.095c0 9.178-7.144 16.699-16.97 16.699C7.065 33.417 0 25.972 0 16.794zm26.522 0v-.09c0-5.542-4.004-10.15-9.642-10.15s-9.558 4.533-9.558 10.074v.096c0 5.54 4.004 10.145 9.647 10.145 5.643 0 9.553-4.54 9.553-10.075zM52.423 8.84l-1.67 6.513a5.429 5.429 0 00-3.71-1.642c-2.484 0-4.128 1.114-4.128 5.5v13.707h-6.403V7.581h6.403v1.693a6.656 6.656 0 012.268-1.657 6.573 6.573 0 012.74-.565 6.054 6.054 0 012.43.425 6.123 6.123 0 012.07 1.363zm37.048 24.078h-6.398V19.212c0-4.534-1.252-5.884-3.9-5.884-2.648 0-3.939 1.35-3.939 5.743v13.847h-6.403V19.212c0-4.534-1.252-5.884-3.895-5.884s-3.944 1.35-3.944 5.743v13.847h-6.398V7.581h6.398v1.692a6.953 6.953 0 012.43-1.697 6.869 6.869 0 012.905-.524c3.105 0 4.918.917 6.726 3.234 1.67-1.783 3.711-3.234 7.745-3.234 6.214 0 8.673 4.443 8.673 11.586v14.28zm2.464-12.84v-.09a12.855 12.855 0 01.928-4.975 12.715 12.715 0 012.771-4.212 12.51 12.51 0 014.174-2.779 12.37 12.37 0 014.913-.904c4.595 0 7.452 1.566 9.737 4.15l-4.233 4.614c-1.545-1.662-3.094-2.725-5.548-2.725-3.478 0-5.917 3.093-5.917 6.735v.096c0 3.783 2.409 6.825 6.19 6.825 2.32 0 3.909-1.007 5.593-2.63l4.049 4.151c-2.365 2.63-5.097 4.534-9.965 4.534a12.303 12.303 0 01-4.876-.906 12.441 12.441 0 01-4.142-2.763 12.642 12.642 0 01-2.75-4.182 12.784 12.784 0 01-.924-4.939zm22.716.036v-.091c0-7.103 5.644-12.87 13.239-12.87 7.595 0 13.149 5.682 13.149 12.78v.09c0 7.102-5.643 12.87-13.238 12.87-7.596 0-13.15-5.672-13.15-12.78zm19.563 0v-.091c0-3.642-2.593-6.825-6.413-6.825-3.975 0-6.324 3.087-6.324 6.734v.09c0 3.648 2.593 6.826 6.413 6.826 3.944 0 6.324-3.087 6.324-6.734zM5.787 41.607l-2.275-3.526h1.197l1.594 2.57 1.625-2.57h1.157l-2.28 3.501V43.9h-.993l-.025-2.292zm3.349-.599c0-.807.316-1.58.879-2.151a2.98 2.98 0 012.121-.892c.796 0 1.56.321 2.122.892.562.57.879 1.344.879 2.15 0 .808-.317 1.582-.88 2.152a2.98 2.98 0 01-2.12.891 2.98 2.98 0 01-2.123-.89 3.065 3.065 0 01-.878-2.152zm4.967 0a2.04 2.04 0 00-.556-1.47 1.986 1.986 0 00-1.43-.615 1.916 1.916 0 00-1.398.607 1.969 1.969 0 00-.535 1.443 2.01 2.01 0 00.54 1.472 1.958 1.958 0 001.427.613 1.91 1.91 0 001.412-.598 1.962 1.962 0 00.54-1.452zm2.087.423v-3.35h.993v3.31c0 1.078.551 1.652 1.45 1.652.9 0 1.446-.539 1.446-1.612v-3.35h.994v3.3c0 1.737-.964 2.609-2.484 2.609s-2.4-.872-2.4-2.559zm6.214-3.35h2.559a2.28 2.28 0 011.654.585 1.761 1.761 0 01.496 1.254c.013.409-.116.81-.365 1.131a1.721 1.721 0 01-.996.632l1.545 2.201h-1.192l-1.41-2.015h-1.282v2.015h-.994l-.015-5.803zm2.484 2.887c.72 0 1.177-.383 1.177-.973 0-.624-.442-.967-1.187-.967h-1.465v1.955l1.475-.015zm5.737-2.887h2.26c1.346 0 2.181.776 2.181 1.95 0 1.304-1.033 1.984-2.295 1.984h-1.138v1.87h-.993l-.015-5.804zm2.18 3.023c.76 0 1.238-.434 1.238-1.038 0-.68-.497-1.038-1.237-1.038h-1.173v2.096l1.173-.02zm3.215-3.023h2.553a2.28 2.28 0 011.654.585 1.74 1.74 0 01.497 1.254c.012.409-.117.81-.366 1.131a1.721 1.721 0 01-.995.632l1.55 2.201h-1.217L38.29 41.87h-1.262v2.015h-.994l-.014-5.803zm2.483 2.887c.726 0 1.183-.383 1.183-.973 0-.624-.443-.967-1.188-.967h-1.47v1.955l1.475-.015zm5.405-2.948h.934l2.524 5.86h-1.078l-.581-1.406h-2.712l-.577 1.425H41.37l2.538-5.878zm1.446 3.527l-.993-2.327-.994 2.327h1.987zm2.285-.539a2.982 2.982 0 01.85-2.16 2.87 2.87 0 012.13-.862 2.94 2.94 0 011.218.212c.386.156.736.392 1.027.694l-.65.756a2.27 2.27 0 00-1.605-.726 1.91 1.91 0 00-1.373.62 1.964 1.964 0 00-.52 1.43 1.984 1.984 0 00.5 1.447 1.934 1.934 0 001.373.639 2.209 2.209 0 001.65-.75l.645.664a2.948 2.948 0 01-1.047.784 2.91 2.91 0 01-1.277.249 2.85 2.85 0 01-2.089-.87 2.963 2.963 0 01-.832-2.128zm7.631-1.98h-1.82v-.947h4.655v.947h-1.818v4.866h-.994l-.025-4.866zm3.878-.947h.994V43.9h-.994v-5.818zm2.207 2.927a2.98 2.98 0 01.202-1.164 2.935 2.935 0 011.608-1.643c.363-.15.753-.223 1.145-.215.416-.017.831.056 1.218.212.386.156.737.392 1.028.694l-.646.756a2.244 2.244 0 00-1.605-.725 1.904 1.904 0 00-1.374.618 1.958 1.958 0 00-.518 1.432 1.986 1.986 0 00.506 1.453 1.932 1.932 0 001.386.632 2.237 2.237 0 001.644-.75l.646.664a2.95 2.95 0 01-1.045.78 2.912 2.912 0 01-1.275.248 2.852 2.852 0 01-2.086-.867 2.964 2.964 0 01-.834-2.125zm6.218-2.927h4.253v.917h-3.244v1.511h2.876v.917h-2.876v1.561h3.283v.912h-4.292v-5.818zm5.232 4.675h1.088v1.143h-1.088v-1.143zm4.425-1.748c0-.806.316-1.58.879-2.15a2.977 2.977 0 012.12-.89c.794 0 1.557.32 2.12.89.561.57.877 1.344.877 2.15 0 .806-.316 1.58-.878 2.15-.562.57-1.325.89-2.12.89-.795 0-1.557-.32-2.12-.89a3.062 3.062 0 01-.877-2.15zm4.938 0a2.04 2.04 0 00-.548-1.447 1.987 1.987 0 00-1.4-.623 1.914 1.914 0 00-1.397.607 1.97 1.97 0 00-.534 1.443 2.01 2.01 0 00.539 1.455 1.959 1.959 0 001.408.615 1.91 1.91 0 001.392-.61 1.964 1.964 0 00.53-1.44h.01zm2.112.423v-3.35h.993v3.31c0 1.078.546 1.652 1.45 1.652.904 0 1.44-.539 1.44-1.612v-3.35h.994v3.3c0 1.737-.993 2.609-2.483 2.609-1.49 0-2.395-.872-2.395-2.559zm6.21-3.35h2.558a2.28 2.28 0 011.654.585 1.76 1.76 0 01.496 1.254c.013.409-.116.81-.365 1.131a1.721 1.721 0 01-.996.632l1.55 2.201H94.19l-1.41-2.015h-1.282v2.015h-.994l-.015-5.803zm2.483 2.887c.72 0 1.182-.383 1.182-.973 0-.624-.442-.967-1.187-.967h-1.49v1.955l1.495-.015zm5.737-2.887h2.265c1.341 0 2.176.776 2.176 1.95 0 1.304-1.028 1.984-2.29 1.984h-1.143v1.87h-.993l-.015-5.804zm2.181 3.023c.765 0 1.237-.434 1.237-1.038 0-.68-.497-1.038-1.237-1.038h-1.173v2.096l1.173-.02zm3.213-3.023h2.559a2.28 2.28 0 011.654.585 1.761 1.761 0 01.497 1.254c.012.409-.117.81-.366 1.131a1.722 1.722 0 01-.995.632l1.53 2.216h-1.193l-1.41-2.015h-1.262V43.9h-.994l-.02-5.818zm2.484 2.887c.721 0 1.178-.383 1.178-.973 0-.624-.443-.967-1.188-.967h-1.465v1.955l1.475-.015zm3.419-2.887H111V43.9h-.993v-5.818zm2.205 2.927c0-.806.316-1.58.878-2.15a2.977 2.977 0 012.12-.89c.795 0 1.557.32 2.12.89.562.57.878 1.344.878 2.15 0 .806-.316 1.58-.878 2.15-.563.57-1.325.89-2.12.89-.795 0-1.558-.32-2.12-.89a3.063 3.063 0 01-.878-2.15zm4.938 0a2.048 2.048 0 00-.549-1.447 1.988 1.988 0 00-1.399-.623 1.92 1.92 0 00-1.397.607 1.963 1.963 0 00-.413.666 1.996 1.996 0 00-.122.777 1.992 1.992 0 00.539 1.455 1.959 1.959 0 001.408.615 1.908 1.908 0 001.399-.605 1.965 1.965 0 00.534-1.445zm2.201-2.927h2.548a2.28 2.28 0 011.654.585 1.761 1.761 0 01.497 1.254c.014.408-.115.809-.363 1.131a1.715 1.715 0 01-.993.632l1.545 2.201h-1.193l-1.41-2.015h-1.277v2.015h-.994l-.014-5.803zm2.483 2.887c.721 0 1.178-.383 1.178-.973 0-.624-.442-.967-1.188-.967h-1.465v1.955l1.475-.015zm3.418-2.887h.993V43.9h-.993v-5.818zm3.87.947h-1.823v-.947h4.654v.947h-1.818v4.866h-.993l-.02-4.866zm5.504 2.579l-2.275-3.526h1.197l1.594 2.57 1.625-2.57h1.152l-2.275 3.501V43.9h-1.018v-2.292zm2.856 1.149h1.088v1.143h-1.088v-1.143z"/></g><defs><clipPath id="clip0_221:2694"><path fill="#fff" d="M0 0h147v44H0z"/></clipPath></defs></svg>
